X:1
L:1/8
Q:1/4=100
M:4/4
K:D
 FG | A2 AA A/c/d/e/ f/c/d/B/ | A2 F>F F2 d>c | B/A/G/F/ dA f/e/d/c/ B/A/G/F/ | F2 E>E E2 FG | 
 Acde fcdB | A2 F>F F2 dc | Bgec dbac | d2 d>d d2 :: f>g | a3 f b3 a | g/f/g/a/ ge a2 ag | 
 fedc Be/f/ g/f/e/d/ | dcBA Bcde | f3 g/f/ e3 f/e/ | d3 e/d/ c3 d/c/ | 
 Bc/d/ e/f/g/e/ d/c/B/A/ B/d/c/e/ | d2 d>d d2 :|
